X:1
T:Susie Go Lightly
C:Ray Campbell
M:4/4
L:1/8
Q:2/4=70
K:G
|:G2B2 c2E2|FGAF G2AB|c2A2 B2G2|FGAF DEFD|
G2B2 c2E2|FGAF G2AB|c3A B2G2|FGAF G4:|]
|:[Fd]4 [DA]4|FGAF G2G2|dedc A2A2|FGAF G4|
[Fd]4 [DA]4|FGAF GABG|[Ec]4 [DA]4|FGAF G4:|]
G2B2 c2E2|FGAF G2AB|c2A2 B2G2|FGAF DEFD|
G2B2 c2E2|FGAF G2AB|c3A B2G2|FGAF G2AB|
c2E2 FGAF|G2AB cBAc|BAGB AGFE|D2EF G2B2|
c2E2 FGAF|G2AB c3A|B3G FGAF|G8|]
